Infinity-Icons/Infinity-Light-Icons/apps/48/rosegarden.svg

<?xml version="1.0" encoding="UTF-8" standalone="no"?>
<svg
   width="48"
   height="48"
   version="1.1"
   id="svg235"
   sodipodi:docname="rosegarden.svg"
   inkscape:version="1.2.1 (9c6d41e410, 2022-07-14)"
   xmlns:inkscape="http://www.inkscape.org/namespaces/inkscape"
   xmlns:sodipodi="http://sodipodi.sourceforge.net/DTD/sodipodi-0.dtd"
   xmlns:xlink="http://www.w3.org/1999/xlink"
   xmlns="http://www.w3.org/2000/svg"
   xmlns:svg="http://www.w3.org/2000/svg">
  <sodipodi:namedview
     id="namedview237"
     pagecolor="#ffffff"
     bordercolor="#666666"
     borderopacity="1.0"
     inkscape:showpageshadow="2"
     inkscape:pageopacity="0.0"
     inkscape:pagecheckerboard="0"
     inkscape:deskcolor="#d1d1d1"
     showgrid="false"
     inkscape:zoom="4.9166667"
     inkscape:cx="24"
     inkscape:cy="24"
     inkscape:window-width="1920"
     inkscape:window-height="1009"
     inkscape:window-x="0"
     inkscape:window-y="0"
     inkscape:window-maximized="1"
     inkscape:current-layer="svg235" />
  <defs
     id="defs215">
    <linearGradient
       id="linearGradient4174">
      <stop
         style="stop-color:#df2323;stop-opacity:1"
         offset="0"
         id="stop209" />
      <stop
         style="stop-color:#e76f6f;stop-opacity:1"
         offset="1"
         id="stop211" />
    </linearGradient>
    <linearGradient
       xlink:href="#linearGradient4174"
       id="linearGradient4181"
       x1="417.391"
       y1="534.987"
       x2="402.986"
       y2="504.664"
       gradientUnits="userSpaceOnUse" />
    <linearGradient
       gradientTransform="matrix(1.049963,0,0,1.0499041,-452.98482,-525.93969)"
       gradientUnits="userSpaceOnUse"
       x2="426.69501"
       y2="499.92099"
       y1="547.67499"
       id="a-6"
       x1="389.32001">
      <stop
         stop-color="#18222a"
         style="stop-color:#1e2b35;stop-opacity:1"
         id="stop216" />
      <stop
         stop-color="#566069"
         offset="1"
         style="stop-color:#6d7983;stop-opacity:1"
         id="stop218" />
    </linearGradient>
    <linearGradient
       xlink:href="#linearGradient4174"
       id="linearGradient4181-6"
       x1="417.39099"
       y1="534.987"
       x2="402.98599"
       y2="504.664"
       gradientUnits="userSpaceOnUse" />
  </defs>
  <rect
     width="41.998524"
     x="-44.99926"
     y="3.001915"
     rx="20.999262"
     height="41.99617"
     transform="scale(-1,1)"
     style="display:inline;overflow:visible;fill:url(#a-6);stroke-width:2.93982;stroke-opacity:0.55"
     id="rect223"
     ry="20.998085" />
  <path
     style="display:inline;overflow:visible;opacity:0.3;fill:#000000;fill-opacity:1;stroke-width:2.93982;stroke-opacity:0.55"
     d="m 3.0124363,23.475176 c -0.004,0.17503 -0.0126,0.34906 -0.0126,0.52509 0,11.63302 9.3656897,20.99809 20.9992097,20.99809 11.633508,0 20.999344,-9.36507 20.999344,-20.99809 0,-0.17603 -0.008,-0.34906 -0.0126,-0.52509 -0.2773,11.38829 -9.533756,20.47312 -20.986734,20.47312 -11.4572,0 -20.7094507,-9.08483 -20.9866097,-20.47312"
     id="path225-3" />
  <path
     d="m 3.0124363,24.521246 c -0.004,-0.17503 -0.0126,-0.34806 -0.0126,-0.52508 0,-11.63293 9.3656897,-20.9980999 20.9992097,-20.9980999 11.633508,0 20.999344,9.3651699 20.999344,20.9980999 0,0.17602 -0.008,0.35005 -0.0126,0.52508 -0.2773,-11.38829 -9.533756,-20.4731199 -20.986734,-20.4731199 -11.4572,0 -20.7094507,9.0848299 -20.9866097,20.4731199"
     style="display:inline;overflow:visible;opacity:0.3;fill:#ffffff;fill-opacity:1;stroke-width:2.93982;stroke-opacity:0.55"
     id="path229" />
  <g
     transform="matrix(0.85119931,0,0,0.85119931,-323.77572,-422.29098)"
     id="g233-3">
    <path
       d="m 409.63727,529.597 c -0.0543,0.32513 0.21268,1.09323 0.33573,1.54674 0.13446,0.4956 0.22781,0.94285 0.33574,1.3406 0.14467,0.53326 0.2016,0.84613 0.33574,1.34051 0.1582,0.58311 0.31602,0.98573 0.55956,1.54674 0.22815,0.52561 0.36197,0.87335 0.55956,1.23744 0.22651,0.41741 0.21266,1.09315 0.33574,1.54683 0.13986,0.51544 0.33607,1.03244 0.44765,1.44358 0.14143,0.52135 0.33574,0.68348 0.33574,1.3406 0,0.77011 -0.14584,0.86083 -0.8953,0.51561 -0.51413,-0.23684 -0.71124,-1.46797 -2.23824,-1.65765 -3.14372,-0.42529 -5.13366,1.43966 -5.17776,4 2.00313,-1.06354 5.05396,-1.98957 6.63261,-1.92989 0.64216,0 1.10422,0.0444 1.45487,0.20623 0.26523,0.12221 -0.34923,1.72366 -0.0875,1.72366 h 2.00002 c 0,0 0.0767,-1.97368 0.0415,-2.13615 -0.11001,-0.50683 0,-1.13098 0,-1.64998 0,-0.43168 0.11191,-0.98182 0.11191,-1.54666 0,-0.44315 0.13097,-0.81203 0.48371,-1.13698 0.13189,-0.12151 0.22383,-0.27494 0.33574,-0.41254 0.44088,-0.54161 -1.49487,0.24572 -2.01446,0.72453 0,0 -0.11191,-0.19587 -0.11191,-0.82499 0,-0.53779 -0.31299,-1.05044 -0.44765,-1.54674 -0.14919,-0.54988 -0.17813,-0.96598 -0.33573,-1.54674 -0.20709,-0.76332 -0.38504,-1.41914 -0.55957,-2.06243 -0.11922,-0.43942 -0.3351,-0.92572 -0.44765,-1.34043 -0.11351,-0.41845 -0.11191,-0.90162 -0.11191,-1.44376 0,-0.71087 0.0234,-0.90649 -0.33574,-1.23744 -0.5163,-0.47568 -1.54237,0.0888 -1.54237,0.51561 z"
       style="fill:#377d50;fill-rule:evenodd;stroke:none"
       id="path217-5" />
    <path
       d="m 411.26935,504.81888 c -1.51975,0.32879 -2.09695,3.00094 -3.76092,2.97912 -2.01411,-0.0161 -4.53017,-0.0827 -6.8062,-0.91986 -2.11197,-0.0477 -2.58544,3.41512 -4.67033,3.1845 -1.60889,0.20463 -5.51113,2.01597 -6.21608,4.80851 -0.50686,1.7227 -0.23756,3.6509 0.92262,5.06087 1.42606,2.16025 3.23867,4.1384 5.45201,5.51798 1.62325,0.78836 3.48117,0.79066 5.17897,1.34543 0.29289,0.21856 0.91918,0.94519 1.13179,1.11884 l 0.0859,0.10912 c -0.85502,0.83957 -2.6562,1.37548 -1.69368,2.83642 0.56451,2.70571 3.3947,5.80929 5.71002,5.93819 2.31452,-0.17732 1.12898,-3.10323 1.90247,-4.47324 1.54646,-2.84691 4.0533,-0.99713 5.70744,0.26524 1.7416,1.1407 2.51968,-2.14751 4.14846,-0.729 1.11395,-0.502 2.51264,-2.33518 3.84661,-3.20182 1.0339,-1.44575 -0.53851,-3.69095 1.69568,-4.2949 1.44818,-1.09041 1.60024,-3.10433 2.86693,-4.36438 1.35559,-1.41365 1.05722,-4.46946 -1.41805,-4.1989 -1.61408,-0.0145 -4.67537,2.60762 -4.9896,-0.63334 -0.85229,-2.57655 -1.47604,-5.49211 -3.78294,-7.23121 -1.474,-1.59899 -3.94608,-3.06489 -5.3111,-3.11757 z"
       style="fill:url(#linearGradient4181-6);fill-opacity:1;fill-rule:evenodd;stroke:none"
       id="path219-6" />
    <path
       d="m 400.57144,519.798 c 1.5561,1.25285 3.57058,2.22095 5.65337,2.20511 1.96894,-0.0856 3.95794,-1.80654 5.89828,-0.73077 1.55908,0.53198 3.51393,2.09809 1.75263,3.58534 -1.2376,0.6829 -2.56081,1.26668 -3.43112,2.39508 -1.32286,1.06128 -2.99504,1.61471 -4.53886,2.31196 -1.60006,0.88169 -3.06219,-0.97396 -3.47381,-1.61966 -0.0148,0.0151 -0.0365,0.026 -0.0517,0.0402 0,0 3.9e-4,0 0,0.0109 -8e-5,3.4e-4 -0.002,0 -0.002,0 4.1e-4,-4.2e-4 -4.3e-4,0 0,0 6.2e-4,-5.9e-4 0.002,0 0.002,0 1.4e-4,-0.0435 -0.0898,-0.20347 -0.33479,-0.56634 -1.38914,-1.41828 -1.55913,-3.63645 -1.3347,-5.48674 0.90852,-0.24495 0.19315,-1.38677 -0.13931,-2.13463 z"
       style="fill:#f57373;fill-opacity:1;fill-rule:evenodd;stroke:none"
       id="path221-2" />
    <path
       d="m 410.51738,506.43616 c -0.88173,0.87822 -0.85518,2.58435 -2.34073,2.59192 1.3292,0.23232 1.292,1.02025 -0.0573,0.71392 -1.59757,-0.18205 -3.84111,-0.46769 -4.69145,1.27206 -1.0956,1.48429 -0.80092,3.36407 0.18287,4.78617 0.20809,2.16428 2.7382,0.58119 4.14146,0.86926 1.75754,-0.62268 3.75554,-2.11271 3.29845,-4.23551 -0.27947,-1.51316 2.0298,-1.02295 0.93408,-2.52368 -1.1092,-0.60189 -2.77255,-3.04486 -0.43733,-3.04625 2.3966,0.48021 3.38853,2.9537 4.87254,4.60404 1.15965,1.59997 1.89876,3.48801 1.95436,5.47469 0.25522,1.41227 1.07382,3.26004 -0.35327,4.32622 -1.48609,0.83439 1.52351,0.38966 1.22594,-0.81551 0.23922,-1.39548 2.30056,-2.74443 3.27665,-2.35747 -0.89329,0.67504 -3.08673,3.0099 -0.9223,3.40286 0.65194,0.0635 1.69783,0.2345 0.36783,0.12186 -1.85792,-0.64851 -3.519,0.60033 -4.44482,2.12263 -0.83761,0.45081 0.16427,-2.02173 -0.66393,-2.53047 0.73716,-2.05008 -0.56464,-4.05598 -2.43897,-4.91063 -1.68081,-0.38619 -2.23556,-3.17455 -2.56694,-3.83167 -0.27904,2.12001 -1.62783,3.83714 -3.78433,4.36441 1.49264,0.0426 2.90215,0.83482 4.45136,0.70844 0.85511,0.37322 3.43314,-0.35226 2.85167,1.00695 -1.85703,0.27337 -3.63872,-0.66452 -5.50301,-0.59806 -1.99013,-0.38984 -4.0341,-0.48743 -6.03592,-0.44803 -1.29438,-1.06018 -1.4888,-3.0813 -1.65498,-4.68197 -0.21358,-1.45967 1.50323,-2.61953 1.84756,-3.35867 -1.20814,-1.03079 -3.29469,0.0304 -3.94011,1.30398 -0.6615,1.36278 -1.4941,2.66693 -1.68581,4.19454 -0.5004,1.20274 -0.24382,2.78027 1.34521,2.65397 -0.42151,1.67138 -2.39498,-1.19413 -2.74525,-2.05939 -0.27149,-1.88395 1.2775,-3.37129 2.05687,-4.93107 1.23576,-1.09915 2.71862,-2.3325 4.43525,-2.3412 1.12968,-0.38123 1.72683,0.9652 2.76758,0.3547 1.99323,0.58084 3.06229,-0.21515 3.66374,-1.69056 0.16755,-0.20153 0.3454,-0.4048 0.59301,-0.51248 z"
       style="fill:#ffafa5;fill-rule:evenodd;stroke:none"
       id="path223-9" />
    <g
       style="fill:#ffafa5;fill-rule:evenodd;stroke:none"
       transform="matrix(0.86978533,0,0,0.86978533,387.63657,-370.51357)"
       id="g229-1">
      <path
         d="m 11.3769,1012.6819 c -0.9847,2.4591 -2.25062,5.5965 -0.416956,7.9734 1.16881,1.4944 3.22063,2.6262 2.74492,4.8443 -0.08076,1.4024 -0.157232,3.6558 -1.73141,1.9647 -1.77078,-0.83 -2.54551,-2.7184 -4.22154,-3.6934 -1.37302,-0.9062 -3.66733,-3.2481 -2.76168,-4.3284 0.85616,1.9235 2.42031,4.0852 4.7085,4.2034 2.91756,-0.2538 -0.83962,-2.882 -1.0226,-4.4495 -1.15239,-2.0516 -0.718753,-5.0231 1.51061,-6.1469 0.370468,-0.1921 0.775057,-0.3205 1.19015,-0.3676 z"
         style="fill:#ffafa5"
         id="path225-2" />
      <path
         d="m 22.636,1013.8241 c 1.29924,-0.4252 3.56855,1.4002 3.37634,1.7651 -1.83607,-1.7127 -0.369981,1.1529 -0.853193,1.9031 0.812672,-1.3461 -1.93229,-3.1761 -2.03927,-2.1803 1.01603,0.4401 1.52376,2.156 0.454389,2.6726 1.18648,-1.1162 -0.48513,-3.1503 -1.50937,-1.9174 1.9058,1.6913 -2.92027,1.0786 -1.17005,-0.7514 0.366383,-0.6114 1.0615,-1.2572 1.74116,-1.4917 z"
         style="fill:#ffafa5"
         id="path227-7" />
    </g>
    <path
       style="opacity:0.15;fill:#000000;fill-opacity:1;fill-rule:evenodd;stroke:none"
       d="m 5.0292969,16.251953 c -0.1195965,1.380775 0.237899,2.788101 1.1386719,3.882813 1.42606,2.16025 3.2378318,4.137998 5.4511722,5.517578 1.62325,0.78836 3.481887,0.790933 5.179687,1.345703 0.168996,0.126108 0.430255,0.399574 0.677734,0.660156 0.19514,-0.139594 0.384024,-0.281356 0.539063,-0.433594 l -0.08594,-0.107421 c -0.212611,-0.17365 -0.83797,-0.900581 -1.13086,-1.119141 -1.6978,-0.55477 -3.556437,-0.557343 -5.179687,-1.345703 C 9.4058006,23.272764 7.5940288,21.295016 6.1679688,19.134766 5.4849168,18.304651 5.118162,17.293635 5.0292969,16.251953 Z m 37.9121091,1.351563 c -0.09265,0.591262 -0.331702,1.16959 -0.742187,1.597656 -1.26669,1.26005 -1.419008,3.274824 -2.867188,4.365234 -2.23419,0.60395 -0.661412,2.849172 -1.695312,4.294922 -1.33397,0.86664 -2.731753,2.699172 -3.845703,3.201172 -1.62878,-1.41851 -2.406838,1.871169 -4.148438,0.730469 -1.65414,-1.26237 -4.162524,-3.112535 -5.708984,-0.265625 -0.77349,1.37001 0.412176,4.295336 -1.902344,4.472656 -2.31532,-0.1289 -5.144474,-3.23179 -5.708984,-5.9375 -0.0656,-0.09957 -0.08781,-0.185981 -0.128907,-0.277344 -0.199056,0.34438 -0.219004,0.749275 0.128907,1.277344 0.56451,2.70571 3.393664,5.8086 5.708984,5.9375 2.31452,-0.17732 1.128854,-3.102646 1.902344,-4.472656 1.54646,-2.84691 4.054844,-0.996745 5.708984,0.265625 1.7416,1.1407 2.519658,-2.148979 4.148438,-0.730469 1.11395,-0.502 2.511733,-2.334532 3.845703,-3.201172 1.0339,-1.44575 -0.538878,-3.690972 1.695312,-4.294922 1.44818,-1.09041 1.600498,-3.105184 2.867188,-4.365234 0.646135,-0.67381 0.904209,-1.715719 0.742187,-2.597656 z"
       transform="translate(384.57143,499.798)"
       id="path231-0" />
  </g>
</svg>

<?xml version="1.0" encoding="UTF-8" standalone="no"?>
<svg xmlns="http://www.w3.org/2000/svg" xmlns:xlink="http://www.w3.org/1999/xlink" width="48" height="48" version="1.1">
 <defs>
  <linearGradient id="linearGradient4174">
   <stop style="stop-color:#df2323;stop-opacity:1" offset="0"/>
   <stop style="stop-color:#e76f6f;stop-opacity:1" offset="1"/>
  </linearGradient>
  <linearGradient xlink:href="#linearGradient4174" id="linearGradient4181" x1="417.391" y1="534.987" x2="402.986" y2="504.664" gradientUnits="userSpaceOnUse"/>
 </defs>
 <g transform="translate(-384.57143,-499.798)">
  <path d="m 409.63727,529.597 c -0.0543,0.32513 0.21268,1.09323 0.33573,1.54674 0.13446,0.4956 0.22781,0.94285 0.33574,1.3406 0.14467,0.53326 0.2016,0.84613 0.33574,1.34051 0.1582,0.58311 0.31602,0.98573 0.55956,1.54674 0.22815,0.52561 0.36197,0.87335 0.55956,1.23744 0.22651,0.41741 0.21266,1.09315 0.33574,1.54683 0.13986,0.51544 0.33607,1.03244 0.44765,1.44358 0.14143,0.52135 0.33574,0.68348 0.33574,1.3406 0,0.77011 -0.14584,0.86083 -0.8953,0.51561 -0.51413,-0.23684 -0.71124,-1.46797 -2.23824,-1.65765 -3.14372,-0.42529 -5.13366,1.43966 -5.17776,4 2.00313,-1.06354 5.05396,-1.98957 6.63261,-1.92989 0.64216,0 1.10422,0.0444 1.45487,0.20623 0.26523,0.12221 -0.34923,1.72366 -0.0875,1.72366 l 2.00002,0 c 0,0 0.0767,-1.97368 0.0415,-2.13615 -0.11001,-0.50683 0,-1.13098 0,-1.64998 0,-0.43168 0.11191,-0.98182 0.11191,-1.54666 0,-0.44315 0.13097,-0.81203 0.48371,-1.13698 0.13189,-0.12151 0.22383,-0.27494 0.33574,-0.41254 0.44088,-0.54161 -1.49487,0.24572 -2.01446,0.72453 0,0 -0.11191,-0.19587 -0.11191,-0.82499 0,-0.53779 -0.31299,-1.05044 -0.44765,-1.54674 -0.14919,-0.54988 -0.17813,-0.96598 -0.33573,-1.54674 -0.20709,-0.76332 -0.38504,-1.41914 -0.55957,-2.06243 -0.11922,-0.43942 -0.3351,-0.92572 -0.44765,-1.34043 -0.11351,-0.41845 -0.11191,-0.90162 -0.11191,-1.44376 0,-0.71087 0.0234,-0.90649 -0.33574,-1.23744 -0.5163,-0.47568 -1.54237,0.0888 -1.54237,0.51561 z" style="fill:#377d50;fill-rule:evenodd;stroke:none"/>
  <path d="m 411.26935,504.81888 c -1.51975,0.32879 -2.09695,3.00094 -3.76092,2.97912 -2.01411,-0.0161 -4.53017,-0.0827 -6.8062,-0.91986 -2.11197,-0.0477 -2.58544,3.41512 -4.67033,3.1845 -1.60889,0.20463 -5.51113,2.01597 -6.21608,4.80851 -0.50686,1.7227 -0.23756,3.6509 0.92262,5.06087 1.42606,2.16025 3.23867,4.1384 5.45201,5.51798 1.62325,0.78836 3.48117,0.79066 5.17897,1.34543 0.29289,0.21856 0.91918,0.94519 1.13179,1.11884 l 0.0859,0.10912 c -0.85502,0.83957 -2.6562,1.37548 -1.69368,2.83642 0.56451,2.70571 3.3947,5.80929 5.71002,5.93819 2.31452,-0.17732 1.12898,-3.10323 1.90247,-4.47324 1.54646,-2.84691 4.0533,-0.99713 5.70744,0.26524 1.7416,1.1407 2.51968,-2.14751 4.14846,-0.729 1.11395,-0.502 2.51264,-2.33518 3.84661,-3.20182 1.0339,-1.44575 -0.53851,-3.69095 1.69568,-4.2949 1.44818,-1.09041 1.60024,-3.10433 2.86693,-4.36438 1.35559,-1.41365 1.05722,-4.46946 -1.41805,-4.1989 -1.61408,-0.0145 -4.67537,2.60762 -4.9896,-0.63334 -0.85229,-2.57655 -1.47604,-5.49211 -3.78294,-7.23121 -1.474,-1.59899 -3.94608,-3.06489 -5.3111,-3.11757 z" style="fill:url(#linearGradient4181);fill-rule:evenodd;stroke:none;fill-opacity:1"/>
  <path d="m 400.57144,519.798 c 1.5561,1.25285 3.57058,2.22095 5.65337,2.20511 1.96894,-0.0856 3.95794,-1.80654 5.89828,-0.73077 1.55908,0.53198 3.51393,2.09809 1.75263,3.58534 -1.2376,0.6829 -2.56081,1.26668 -3.43112,2.39508 -1.32286,1.06128 -2.99504,1.61471 -4.53886,2.31196 -1.60006,0.88169 -3.06219,-0.97396 -3.47381,-1.61966 -0.0148,0.0151 -0.0365,0.026 -0.0517,0.0402 0,0 3.9e-4,0 0,0.0109 -8e-5,3.4e-4 -0.002,0 -0.002,0 4.1e-4,-4.2e-4 -4.3e-4,0 0,0 6.2e-4,-5.9e-4 0.002,0 0.002,0 1.4e-4,-0.0435 -0.0898,-0.20347 -0.33479,-0.56634 -1.38914,-1.41828 -1.55913,-3.63645 -1.3347,-5.48674 0.90852,-0.24495 0.19315,-1.38677 -0.13931,-2.13463 z" style="fill:#f57373;fill-rule:evenodd;stroke:none;fill-opacity:1"/>
  <path d="m 410.51738,506.43616 c -0.88173,0.87822 -0.85518,2.58435 -2.34073,2.59192 1.3292,0.23232 1.292,1.02025 -0.0573,0.71392 -1.59757,-0.18205 -3.84111,-0.46769 -4.69145,1.27206 -1.0956,1.48429 -0.80092,3.36407 0.18287,4.78617 0.20809,2.16428 2.7382,0.58119 4.14146,0.86926 1.75754,-0.62268 3.75554,-2.11271 3.29845,-4.23551 -0.27947,-1.51316 2.0298,-1.02295 0.93408,-2.52368 -1.1092,-0.60189 -2.77255,-3.04486 -0.43733,-3.04625 2.3966,0.48021 3.38853,2.9537 4.87254,4.60404 1.15965,1.59997 1.89876,3.48801 1.95436,5.47469 0.25522,1.41227 1.07382,3.26004 -0.35327,4.32622 -1.48609,0.83439 1.52351,0.38966 1.22594,-0.81551 0.23922,-1.39548 2.30056,-2.74443 3.27665,-2.35747 -0.89329,0.67504 -3.08673,3.0099 -0.9223,3.40286 0.65194,0.0635 1.69783,0.2345 0.36783,0.12186 -1.85792,-0.64851 -3.519,0.60033 -4.44482,2.12263 -0.83761,0.45081 0.16427,-2.02173 -0.66393,-2.53047 0.73716,-2.05008 -0.56464,-4.05598 -2.43897,-4.91063 -1.68081,-0.38619 -2.23556,-3.17455 -2.56694,-3.83167 -0.27904,2.12001 -1.62783,3.83714 -3.78433,4.36441 1.49264,0.0426 2.90215,0.83482 4.45136,0.70844 0.85511,0.37322 3.43314,-0.35226 2.85167,1.00695 -1.85703,0.27337 -3.63872,-0.66452 -5.50301,-0.59806 -1.99013,-0.38984 -4.0341,-0.48743 -6.03592,-0.44803 -1.29438,-1.06018 -1.4888,-3.0813 -1.65498,-4.68197 -0.21358,-1.45967 1.50323,-2.61953 1.84756,-3.35867 -1.20814,-1.03079 -3.29469,0.0304 -3.94011,1.30398 -0.6615,1.36278 -1.4941,2.66693 -1.68581,4.19454 -0.5004,1.20274 -0.24382,2.78027 1.34521,2.65397 -0.42151,1.67138 -2.39498,-1.19413 -2.74525,-2.05939 -0.27149,-1.88395 1.2775,-3.37129 2.05687,-4.93107 1.23576,-1.09915 2.71862,-2.3325 4.43525,-2.3412 1.12968,-0.38123 1.72683,0.9652 2.76758,0.3547 1.99323,0.58084 3.06229,-0.21515 3.66374,-1.69056 0.16755,-0.20153 0.3454,-0.4048 0.59301,-0.51248 z" style="fill:#ffafa5;fill-rule:evenodd;stroke:none"/>
  <g style="fill:#ffafa5;fill-rule:evenodd;stroke:none" transform="matrix(0.86978533,0,0,0.86978533,387.63657,-370.51357)">
   <path d="m 11.3769,1012.6819 c -0.9847,2.4591 -2.25062,5.5965 -0.416956,7.9734 1.16881,1.4944 3.22063,2.6262 2.74492,4.8443 -0.08076,1.4024 -0.157232,3.6558 -1.73141,1.9647 -1.77078,-0.83 -2.54551,-2.7184 -4.22154,-3.6934 -1.37302,-0.9062 -3.66733,-3.2481 -2.76168,-4.3284 0.85616,1.9235 2.42031,4.0852 4.7085,4.2034 2.91756,-0.2538 -0.83962,-2.882 -1.0226,-4.4495 -1.15239,-2.0516 -0.718753,-5.0231 1.51061,-6.1469 0.370468,-0.1921 0.775057,-0.3205 1.19015,-0.3676 z" style="fill:#ffafa5"/>
   <path d="m 22.636,1013.8241 c 1.29924,-0.4252 3.56855,1.4002 3.37634,1.7651 -1.83607,-1.7127 -0.369981,1.1529 -0.853193,1.9031 0.812672,-1.3461 -1.93229,-3.1761 -2.03927,-2.1803 1.01603,0.4401 1.52376,2.156 0.454389,2.6726 1.18648,-1.1162 -0.48513,-3.1503 -1.50937,-1.9174 1.9058,1.6913 -2.92027,1.0786 -1.17005,-0.7514 0.366383,-0.6114 1.0615,-1.2572 1.74116,-1.4917 z" style="fill:#ffafa5"/>
  </g>
  <path style="fill:#000000;fill-rule:evenodd;stroke:none;fill-opacity:1;opacity:0.15" d="M 5.0292969 16.251953 C 4.9097004 17.632728 5.2671959 19.040054 6.1679688 20.134766 C 7.5940288 22.295016 9.4058006 24.272764 11.619141 25.652344 C 13.242391 26.440704 15.101028 26.443277 16.798828 26.998047 C 16.967824 27.124155 17.229083 27.397621 17.476562 27.658203 C 17.671702 27.518609 17.860586 27.376847 18.015625 27.224609 L 17.929688 27.117188 C 17.717077 26.943538 17.091718 26.216607 16.798828 25.998047 C 15.101028 25.443277 13.242391 25.440704 11.619141 24.652344 C 9.4058006 23.272764 7.5940288 21.295016 6.1679688 19.134766 C 5.4849168 18.304651 5.118162 17.293635 5.0292969 16.251953 z M 42.941406 17.603516 C 42.848755 18.194778 42.609704 18.773106 42.199219 19.201172 C 40.932529 20.461222 40.780211 22.475996 39.332031 23.566406 C 37.097841 24.170356 38.670619 26.415578 37.636719 27.861328 C 36.302749 28.727968 34.904966 30.5605 33.791016 31.0625 C 32.162236 29.64399 31.384178 32.933669 29.642578 31.792969 C 27.988438 30.530599 25.480054 28.680434 23.933594 31.527344 C 23.160104 32.897354 24.34577 35.82268 22.03125 36 C 19.71593 35.8711 16.886776 32.76821 16.322266 30.0625 C 16.256667 29.962933 16.234458 29.876519 16.193359 29.785156 C 15.994303 30.129536 15.974355 30.534431 16.322266 31.0625 C 16.886776 33.76821 19.71593 36.8711 22.03125 37 C 24.34577 36.82268 23.160104 33.897354 23.933594 32.527344 C 25.480054 29.680434 27.988438 31.530599 29.642578 32.792969 C 31.384178 33.933669 32.162236 30.64399 33.791016 32.0625 C 34.904966 31.5605 36.302749 29.727968 37.636719 28.861328 C 38.670619 27.415578 37.097841 25.170356 39.332031 24.566406 C 40.780211 23.475996 40.932529 21.461222 42.199219 20.201172 C 42.845354 19.527362 43.103428 18.485453 42.941406 17.603516 z" transform="translate(384.57143,499.798)"/>
 </g>
</svg>
